static/img/mobile/button-default-dark.svg

<svg fill="none" height="48" viewBox="0 0 87 48" width="87" xmlns="http://www.w3.org/2000/svg" xmlns:xlink="http://www.w3.org/1999/xlink"><clipPath id="a"><path d="m16 12h55v24h-55z"/></clipPath><rect fill="#019aeb" height="48" rx="4" width="87"/><g clip-path="url(#a)"><path d="m17.7188 18.5781h3.3984c1.4739 0 2.5859.2136 3.3359.6407.75.427 1.125 1.164 1.125 2.2109 0 .4375-.0781.8333-.2343 1.1875-.1511.3489-.3724.638-.6641.8672-.2917.2239-.6511.375-1.0781.4531v.0781c.4427.0782.8359.2162 1.1796.4141.349.1979.6224.4818.8204.8515.2031.3698.3046.849.3046 1.4376 0 .6979-.1666 1.2916-.5 1.7812-.3281.4896-.7994.862-1.414 1.1172-.6094.2552-1.3333.3828-2.1719.3828h-4.1015zm1.875 4.711h1.7968c.849 0 1.4375-.1381 1.7656-.4141.3282-.276.4922-.6797.4922-1.2109 0-.5417-.1953-.9323-.5859-1.1719-.3854-.2396-1-.3594-1.8437-.3594h-1.625zm0 1.5156v3.625h1.9765c.875 0 1.4896-.1693 1.8438-.5078.3541-.3386.5312-.7969.5312-1.375 0-.3542-.0807-.6615-.2422-.9219-.1562-.2604-.414-.4609-.7734-.6016-.3594-.1458-.8438-.2187-1.4531-.2187zm16.2734-3.4531v8.6484h-1.4453l-.25-1.1641h-.1016c-.1823.2969-.4141.5443-.6953.7422-.2812.1927-.5938.336-.9375.4297-.3437.099-.7057.1484-1.0859.1484-.6511 0-1.2084-.1093-1.6719-.3281-.4583-.2239-.8099-.5677-1.0547-1.0312-.2448-.4636-.3672-1.0625-.3672-1.7969v-5.6484h1.8438v5.3046c0 .6719.1354 1.1745.4062 1.5079.2761.3333.7031.5 1.2813.5.5573 0 1-.1146 1.3281-.3438s.5599-.5677.6953-1.0156c.1406-.4479.2109-.9974.2109-1.6485v-4.3046zm6.1016 7.3203c.2395 0 .4765-.0209.7109-.0625.2344-.0469.4479-.1016.6406-.1641v1.3906c-.2031.0886-.4661.1641-.7891.2266-.3229.0625-.6588.0937-1.0078.0937-.4895 0-.9296-.0807-1.3203-.2421-.3906-.1667-.7005-.4506-.9297-.8516-.2291-.401-.3437-.9557-.3437-1.6641v-4.6484h-1.1797v-.8203l1.2656-.6485.6016-1.8515h1.1562v1.9219h2.4766v1.3984h-2.4766v4.625c0 .4375.1094.763.3282.9766.2187.2135.5078.3203.8672.3203zm6.5781 0c.2396 0 .4765-.0209.7109-.0625.2344-.0469.4479-.1016.6406-.1641v1.3906c-.2031.0886-.4661.1641-.789.2266s-.6589.0937-1.0078.0937c-.4896 0-.9297-.0807-1.3204-.2421-.3906-.1667-.7005-.4506-.9296-.8516-.2292-.401-.3438-.9557-.3438-1.6641v-4.6484h-1.1797v-.8203l1.2657-.6485.6015-1.8515h1.1563v1.9219h2.4765v1.3984h-2.4765v4.625c0 .4375.1093.763.3281.9766.2187.2135.5078.3203.8672.3203zm11.0156-3.0157c0 .7188-.0937 1.3568-.2813 1.9141-.1874.5573-.4609 1.0287-.8203 1.4141-.3593.3802-.7916.6718-1.2968.875-.5052.1979-1.0756.2968-1.711.2968-.5937 0-1.138-.0989-1.6328-.2968-.4948-.2032-.9245-.4948-1.2891-.875-.3593-.3854-.638-.8568-.8359-1.4141s-.2969-1.1953-.2969-1.9141c0-.9531.1641-1.7604.4922-2.4218.3334-.6667.8073-1.1745 1.4219-1.5235.6146-.3489 1.3464-.5234 2.1953-.5234.7969 0 1.5.1745 2.1094.5234.6094.349 1.0859.8568 1.4297 1.5235.3437.6666.5156 1.4739.5156 2.4218zm-6.2734 0c0 .6303.0755 1.1693.2265 1.6172.1563.448.3959.7917.7188 1.0313.3229.2344.7396.3515 1.25.3515s.9271-.1171 1.25-.3515c.3229-.2396.5599-.5833.7109-1.0313.1511-.4479.2266-.9869.2266-1.6172 0-.6302-.0755-1.164-.2266-1.6015-.151-.4427-.388-.7787-.7109-1.0078-.3229-.2344-.7422-.3516-1.2578-.3516-.7605 0-1.3151.2552-1.6641.7656-.349.5105-.5234 1.2422-.5234 2.1953zm13.1406-4.4687c.9739 0 1.7318.2526 2.2734.7578.5469.5.8203 1.3047.8203 2.4141v5.6406h-1.8359v-5.2969c0-.6719-.138-1.1745-.4141-1.5078-.276-.3385-.7031-.5078-1.2812-.5078-.8386 0-1.4219.2578-1.75.7734-.3229.5157-.4844 1.2631-.4844 2.2422v4.2969h-1.8359v-8.6484h1.4297l.2578 1.1718h.1015c.1875-.302.4193-.5494.6953-.7422.2813-.1979.5938-.3463.9376-.4453.3489-.0989.7109-.1484 1.0859-.1484z" fill="#fff"/></g></svg>

<svg width="87" height="48" viewBox="0 0 87 48" fill="none" xmlns="http://www.w3.org/2000/svg">
<rect width="87" height="48" rx="4" fill="#019AEB"/>
<g clip-path="url(#clip0_480_99451)">
<path d="M17.7188 18.5781H21.1172C22.5911 18.5781 23.7031 18.7917 24.4531 19.2188C25.2031 19.6458 25.5781 20.3828 25.5781 21.4297C25.5781 21.8672 25.5 22.263 25.3438 22.6172C25.1927 22.9661 24.9714 23.2552 24.6797 23.4844C24.388 23.7083 24.0286 23.8594 23.6016 23.9375V24.0156C24.0443 24.0938 24.4375 24.2318 24.7812 24.4297C25.1302 24.6276 25.4036 24.9115 25.6016 25.2812C25.8047 25.651 25.9062 26.1302 25.9062 26.7188C25.9062 27.4167 25.7396 28.0104 25.4062 28.5C25.0781 28.9896 24.6068 29.362 23.9922 29.6172C23.3828 29.8724 22.6589 30 21.8203 30H17.7188V18.5781ZM19.5938 23.2891H21.3906C22.2396 23.2891 22.8281 23.151 23.1562 22.875C23.4844 22.599 23.6484 22.1953 23.6484 21.6641C23.6484 21.1224 23.4531 20.7318 23.0625 20.4922C22.6771 20.2526 22.0625 20.1328 21.2188 20.1328H19.5938V23.2891ZM19.5938 24.8047V28.4297H21.5703C22.4453 28.4297 23.0599 28.2604 23.4141 27.9219C23.7682 27.5833 23.9453 27.125 23.9453 26.5469C23.9453 26.1927 23.8646 25.8854 23.7031 25.625C23.5469 25.3646 23.2891 25.1641 22.9297 25.0234C22.5703 24.8776 22.0859 24.8047 21.4766 24.8047H19.5938ZM35.8672 21.3516V30H34.4219L34.1719 28.8359H34.0703C33.888 29.1328 33.6562 29.3802 33.375 29.5781C33.0938 29.7708 32.7812 29.9141 32.4375 30.0078C32.0938 30.1068 31.7318 30.1562 31.3516 30.1562C30.7005 30.1562 30.1432 30.0469 29.6797 29.8281C29.2214 29.6042 28.8698 29.2604 28.625 28.7969C28.3802 28.3333 28.2578 27.7344 28.2578 27V21.3516H30.1016V26.6562C30.1016 27.3281 30.237 27.8307 30.5078 28.1641C30.7839 28.4974 31.2109 28.6641 31.7891 28.6641C32.3464 28.6641 32.7891 28.5495 33.1172 28.3203C33.4453 28.0911 33.6771 27.7526 33.8125 27.3047C33.9531 26.8568 34.0234 26.3073 34.0234 25.6562V21.3516H35.8672ZM41.9688 28.6719C42.2083 28.6719 42.4453 28.651 42.6797 28.6094C42.9141 28.5625 43.1276 28.5078 43.3203 28.4453V29.8359C43.1172 29.9245 42.8542 30 42.5312 30.0625C42.2083 30.125 41.8724 30.1562 41.5234 30.1562C41.0339 30.1562 40.5938 30.0755 40.2031 29.9141C39.8125 29.7474 39.5026 29.4635 39.2734 29.0625C39.0443 28.6615 38.9297 28.1068 38.9297 27.3984V22.75H37.75V21.9297L39.0156 21.2812L39.6172 19.4297H40.7734V21.3516H43.25V22.75H40.7734V27.375C40.7734 27.8125 40.8828 28.138 41.1016 28.3516C41.3203 28.5651 41.6094 28.6719 41.9688 28.6719ZM48.5469 28.6719C48.7865 28.6719 49.0234 28.651 49.2578 28.6094C49.4922 28.5625 49.7057 28.5078 49.8984 28.4453V29.8359C49.6953 29.9245 49.4323 30 49.1094 30.0625C48.7865 30.125 48.4505 30.1562 48.1016 30.1562C47.612 30.1562 47.1719 30.0755 46.7812 29.9141C46.3906 29.7474 46.0807 29.4635 45.8516 29.0625C45.6224 28.6615 45.5078 28.1068 45.5078 27.3984V22.75H44.3281V21.9297L45.5938 21.2812L46.1953 19.4297H47.3516V21.3516H49.8281V22.75H47.3516V27.375C47.3516 27.8125 47.4609 28.138 47.6797 28.3516C47.8984 28.5651 48.1875 28.6719 48.5469 28.6719ZM59.5625 25.6562C59.5625 26.375 59.4688 27.013 59.2812 27.5703C59.0938 28.1276 58.8203 28.599 58.4609 28.9844C58.1016 29.3646 57.6693 29.6562 57.1641 29.8594C56.6589 30.0573 56.0885 30.1562 55.4531 30.1562C54.8594 30.1562 54.3151 30.0573 53.8203 29.8594C53.3255 29.6562 52.8958 29.3646 52.5312 28.9844C52.1719 28.599 51.8932 28.1276 51.6953 27.5703C51.4974 27.013 51.3984 26.375 51.3984 25.6562C51.3984 24.7031 51.5625 23.8958 51.8906 23.2344C52.224 22.5677 52.6979 22.0599 53.3125 21.7109C53.9271 21.362 54.6589 21.1875 55.5078 21.1875C56.3047 21.1875 57.0078 21.362 57.6172 21.7109C58.2266 22.0599 58.7031 22.5677 59.0469 23.2344C59.3906 23.901 59.5625 24.7083 59.5625 25.6562ZM53.2891 25.6562C53.2891 26.2865 53.3646 26.8255 53.5156 27.2734C53.6719 27.7214 53.9115 28.0651 54.2344 28.3047C54.5573 28.5391 54.974 28.6562 55.4844 28.6562C55.9948 28.6562 56.4115 28.5391 56.7344 28.3047C57.0573 28.0651 57.2943 27.7214 57.4453 27.2734C57.5964 26.8255 57.6719 26.2865 57.6719 25.6562C57.6719 25.026 57.5964 24.4922 57.4453 24.0547C57.2943 23.612 57.0573 23.276 56.7344 23.0469C56.4115 22.8125 55.9922 22.6953 55.4766 22.6953C54.7161 22.6953 54.1615 22.9505 53.8125 23.4609C53.4635 23.9714 53.2891 24.7031 53.2891 25.6562ZM66.4297 21.1875C67.4036 21.1875 68.1615 21.4401 68.7031 21.9453C69.25 22.4453 69.5234 23.25 69.5234 24.3594V30H67.6875V24.7031C67.6875 24.0312 67.5495 23.5286 67.2734 23.1953C66.9974 22.8568 66.5703 22.6875 65.9922 22.6875C65.1536 22.6875 64.5703 22.9453 64.2422 23.4609C63.9193 23.9766 63.7578 24.724 63.7578 25.7031V30H61.9219V21.3516H63.3516L63.6094 22.5234H63.7109C63.8984 22.2214 64.1302 21.974 64.4062 21.7812C64.6875 21.5833 65 21.4349 65.3438 21.3359C65.6927 21.237 66.0547 21.1875 66.4297 21.1875Z" fill="white"/>
</g>
<defs>
<clipPath id="clip0_480_99451">
<rect width="55" height="24" fill="white" transform="translate(16 12)"/>
</clipPath>
</defs>
</svg>
